X:56
T:GB/7a/56 On Christmas Night All Christians Sing
%%VWML:GB-7a-56-0
F:http://www.vwml.org/record/GB/7a/56
T:Version 1 of 2
P:Mr Knight (c. 60), Horsham, IV. 07
C:Transcribed by Simon Furey and Lewis Jones
L:1/4
M:6/4
I:linebreak $
K:C
E | G2 G F2 F | E2 E D C B, | C2 C D E F | E2 D C3 | E3 D2 C | D E F G F E |$ D6 | G3 A3 | w: ||||||||news of|
(G2 E) F3 | G3 C2 C | D E F E2 D | C4- C |]
w: news * of|news of our|mer- ci- ful sav- iour's|birth *|

